source/img/icons/icon-phone-dark.svg

<svg width="15" height="15" viewBox="0 0 15 15" fill="none" xmlns="http://www.w3.org/2000/svg">
<path fill-rule="evenodd" clip-rule="evenodd" d="M14.5537 13.6046C14.3003 13.9906 13.7612 14.5024 13.2409 14.7457C12.7205 14.9891 12.2189 14.9642 11.7614 14.884C11.3039 14.8039 10.8905 14.6685 9.80946 13.9732C8.72834 13.2779 6.97945 12.0228 5.48343 10.4032C3.98736 8.78359 2.74415 6.79961 2.01486 5.55507C1.28556 4.31058 1.07007 3.8055 1.00773 3.29553C0.945399 2.78551 1.03611 2.27059 1.38026 1.74771C1.72442 1.22483 2.32179 0.694017 2.87512 0.568912C3.42845 0.443807 3.93761 0.72445 4.39809 1.10886C4.85857 1.49332 5.27043 1.98155 5.53023 2.47201C5.79002 2.96248 5.89777 3.45513 5.76593 3.82033C5.63416 4.18549 5.26274 4.42324 5.01361 4.57278C4.76449 4.72232 4.63763 4.7838 4.54866 4.85326C4.45976 4.92273 4.4088 5.00023 4.44785 5.1682C4.48697 5.33611 4.61615 5.59449 4.96214 6.25461C5.3082 6.91469 5.87111 7.9765 6.65939 8.90278C7.44772 9.82906 8.46142 10.6198 9.06709 10.9771C9.67275 11.3344 9.87042 11.2583 10.08 11.011C10.2896 10.7638 10.5112 10.3452 10.7724 10.1345C11.0336 9.92383 11.3342 9.92097 11.6218 9.97908C11.9093 10.0371 12.1837 10.1561 12.5086 10.3526C12.8335 10.5492 13.2089 10.8232 13.5606 11.1504C13.9124 11.4775 14.2404 11.8576 14.4335 12.1244C14.6266 12.3911 14.6846 12.5445 14.7298 12.7514C14.7749 12.9583 14.8071 13.2186 14.5537 13.6046Z" fill="#001270"/>
</svg>

<svg width="15" height="15" fill="none" xmlns="http://www.w3.org/2000/svg"><path fill-rule="evenodd" clip-rule="evenodd" d="M14.554 13.605c-.254.386-.793.897-1.313 1.14-.52.244-1.022.22-1.48.139-.457-.08-.87-.216-1.952-.91-1.08-.696-2.83-1.951-4.326-3.57C3.987 8.783 2.744 6.8 2.015 5.554c-.73-1.244-.945-1.75-1.007-2.26a2.223 2.223 0 0 1 .372-1.547c.344-.523.942-1.054 1.495-1.18.553-.124 1.063.156 1.523.54.46.385.872.874 1.132 1.364.26.49.368.983.236 1.348-.132.365-.503.603-.752.753-.25.15-.376.21-.465.28-.09.07-.14.147-.101.315.039.168.168.426.514 1.087.346.66.91 1.721 1.697 2.648.789.926 1.802 1.717 2.408 2.074.606.357.803.281 1.013.034.21-.247.431-.666.692-.877.262-.21.562-.213.85-.155.287.058.562.177.887.374.325.196.7.47 1.052.797.351.327.68.708.873.974.193.267.25.42.296.627.045.207.077.468-.176.854z" fill="#001270"/></svg>
